images/MYST.svg

<svg height="250" viewBox="0 0 250 250" width="250" xmlns="http://www.w3.org/2000/svg" xmlns:xlink="http://www.w3.org/1999/xlink"><linearGradient id="a" gradientTransform="matrix(.361272 0 0 .690608 -37.574062 -185.773481)" gradientUnits="userSpaceOnUse" x1="450" x2="450" y1="630.159973" y2="242.190002"><stop offset="0" stop-color="#272460"/><stop offset=".21" stop-color="#3a2460"/><stop offset=".62" stop-color="#6a2362"/><stop offset="1" stop-color="#9c2363"/></linearGradient><path d="m247.941406 155.386719-79.589844-153.613281c-.589843-1.132813-1.390624-1.773438-2.226562-1.773438s-1.636719.640625-2.226562 1.773438l-36.214844 69.835937c-.710938 1.367187-1.675782 2.136719-2.683594 2.136719-1.003906 0-1.96875-.769532-2.679688-2.136719l-36.210937-69.820313c-1.242187-2.269531-3.199219-2.269531-4.445313 0l-79.609374 153.597657c-2.667969 5.148437-2.667969 13.441406 0 18.589843l38.492187 74.226563c1.246094 2.273437 3.207031 2.273437 4.453125 0l36.199219-69.832031c.707031-1.367188 1.671875-2.132813 2.679687-2.132813 1.007813 0 1.972656.765625 2.683594 2.132813l36.207031 69.828125c.589844 1.128906 1.390625 1.765625 2.226563 1.765625.832031 0 1.632812-.636719 2.222656-1.765625l36.21875-69.816407c.707031-1.367187 1.671875-2.136718 2.679688-2.136718 1.007812 0 1.972656.769531 2.679687 2.136718l36.203125 69.835938c.585938 1.136719 1.386719 1.773438 2.222656 1.773438.835938 0 1.636719-.636719 2.226563-1.773438l38.492187-74.246094c2.664063-5.148437 2.664063-13.4375 0-18.585937zm-79.589844 5.109375-9.394531-18.515625c-.882812-1.746094-1.25-4.230469-.96875-6.605469s1.164063-4.320312 2.355469-5.175781l15.085938-10.8125c1.253906-.902344 2.664062-.460938 3.703124 1.152343 1.042969 1.617188 1.554688 4.164063 1.351563 6.699219l-2.800781 34.921875c-.21875 2.695313-1.210938 4.925782-2.566406 5.765625-1.359376.84375-2.847657.15625-3.851563-1.78125zm-103.296874-69.75-22.035157 13.425781c-.925781.566406-1.929687-.148437-2.4375-1.730469-.503906-1.582031-.378906-3.621094.304688-4.933594l24.597656-47.453124c.753906-1.429688 1.898437-1.792969 2.855469-.902344.953125.890625 1.507812 2.835937 1.382812 4.851562l-2.074218 30.769532c-.1875 2.78125-1.199219 5.101562-2.601563 5.953124zm4.492187 17.066406 7.007813 36.25c.394531 2.03125.140624 4.316406-.648438 5.875s-1.972656 2.109375-3.050781 1.421875l-19.914063-12.707031c-1.507812-.960938-2.539062-3.628906-2.578125-6.671875l-.179687-14.15625c-.039063-3.207031 1.03125-6.078125 2.628906-7.050781l12.046875-7.335938c1.917969-1.164062 3.976563.75 4.679687 4.351562zm-13.863281 45.21875 16.660156 10.644531c1.238281.785157 2.175781 2.742188 2.476562 5.171875.304688 2.425782-.070312 4.980469-.988281 6.753906l-18.558593 35.722657c-.65625 1.269531-1.644532 1.664062-2.511719 1.007812-.863281-.660156-1.441407-2.242187-1.464844-4.023437l-.605469-48.300782c-.027344-2.355468.546875-4.585937 1.539063-5.980468.996093-1.390625 2.28125-1.773438 3.445312-1.015625zm27.945312-41.933594 20.832032 16.609375c.964843.773438 1.71875 2.273438 2.082031 4.152344.367187 1.875.308593 3.953125-.160157 5.746094l-8.441406 32.179687c-.542968 2.078125-1.578125 3.527344-2.777344 3.894532-1.199218.367187-2.421874-.394532-3.277343-2.042969l-4.722657-9.109375c-.378906-.730469-.671874-1.609375-.859374-2.574219l-7.667969-39.691406c-.523438-2.691407-.164063-5.722657.917969-7.714844 1.082031-1.996094 2.679687-2.570313 4.066406-1.46875zm94.800782-6.628906-15.304688 10.980469c-.972656.699219-2.054688.597656-2.984375-.273438-.933594-.875-1.636719-2.445312-1.945313-4.339843l-1.335937-8.199219c-.421875-2.59375-.046875-5.425781.976563-7.320313l15.386718-28.554687c.582032-1.074219 1.417969-1.480469 2.195313-1.066407.777343.414063 1.382812 1.582032 1.589843 3.074219l3.75 27.101563c.488282 3.578125-.519531 7.285156-2.335937 8.578125zm-28.265626 20.269531-16.058593 11.519531c-.898438.640626-1.890625.605469-2.777344-.097656l-2.578125-2.070312c-1.507812-1.203125-2.4375-4.121094-2.308594-7.230469l1.492188-36.277344c.074218-1.703125.457031-3.304687 1.085937-4.519531l9.707031-18.75c.933594-1.796875 2.289063-2.53125 3.578126-1.929688 1.285156.601563 2.3125 2.449219 2.707031 4.867188l7.421875 45.578125c.59375 3.648437-.40625 7.546875-2.277344 8.890625zm-34.832031-1.332031-5.160156-4.144531c-1.105469-.882813-1.925781-2.71875-2.210937-4.945313l-6.617188-51.796875c-.304688-2.375.257812-4.84375 1.375-6.039062 1.117188-1.195313 2.511719-.824219 3.414062.910156l14.421876 27.808594c.773437 1.492187 1.167968 3.554687 1.082031 5.648437l-1.082031 26.429688c-.09375 2.316406-.761719 4.402344-1.796876 5.613281-1.039062 1.207031-2.316406 1.390625-3.433593.492187zm1.910157 14.5 10.78125 8.597656c1.164062.929688 2.011718 2.917969 2.25 5.292969l2.050781 20.242187c.214843 2.09375-.199219 4.242188-1.066407 5.578126-.871093 1.339843-2.054687 1.652343-3.082031.808593l-17.292969-14.199219c-.953124-.785156-1.699218-2.285156-2.054687-4.152343-.359375-1.867188-.296875-3.933594.167969-5.710938l3.414062-13.03125c.886719-3.390625 2.992188-4.898437 4.824219-3.453125zm21.96875 7.488281 7.039062-5.050781c1.402344-1.011719 2.988281-.339844 4.039062 1.714844l8.875 17.519531c1.429688 2.824219 1.414063 7.3125-.03125 10.105469l-12.257812 23.632812c-.988281 1.898438-2.441406 2.597656-3.78125 1.820313-1.339844-.777344-2.34375-2.910157-2.609375-5.539063l-3.65625-36.101562c-.347656-3.453125.65625-6.886719 2.375-8.128906zm52.023437-33.839843 6.464844-.324219c1.4375-.074219 2.773437 1.417969 3.441406 3.851562l8.484375 30.816407c.6875 2.484374.554688 5.503906-.335938 7.742187l-16.734374 41.90625c-.660157 1.660156-1.667969 2.6875-2.757813 2.820313-1.089844.132812-2.15625-.644532-2.921875-2.132813l-3.507812-6.757813c-.839844-1.625-1.230469-3.917968-1.046876-6.175781l5.273438-65.640625c.277344-3.449218 1.808594-6.019531 3.632812-6.105468zm-4.21875-17.328126-4.734375-34.199218c-.324219-2.367188.21875-4.855469 1.332031-6.070313 1.109375-1.214843 2.511719-.851562 3.410157.882813l16.554687 31.941406c1.058594 2.046875 1.378906 5.101562.820313 7.769531-.5625 2.671875-1.898438 4.453125-3.402344 4.53125l-10.230469.515625c-1.753906.097656-3.3125-2.128906-3.757813-5.371094zm-18.222656-74.550781 1.226562 2.375c.46875.894531.800781 2.011719.96875 3.230469l2.617188 18.917969c.347656 2.523437-.042969 5.207031-1.019531 7.023437l-14.089844 26.167969c-.941406 1.742187-2.292969 2.425781-3.5625 1.808594-1.269532-.621094-2.28125-2.453125-2.675782-4.847657l-3.425781-21.058593c-.417969-2.546875-.0625-5.328125.921875-7.222657l13.683594-26.394531c.707031-1.363281 1.671875-2.128906 2.675781-2.128906 1.007813 0 1.96875.765625 2.679688 2.128906zm-82.222657 0 3.023438 5.875c.480469.933594.820312 2.097657.984375 3.371094l8.863281 69.371094c.339844 2.644531-.128906 5.429687-1.210937 7.199219-1.082031 1.769531-2.59375 2.222656-3.90625 1.171874l-18.066407-14.40625c-1.570312-1.253906-2.507812-4.367187-2.289062-7.597656l3.792969-56.222656c.109375-1.566406.484375-3.019531 1.066406-4.140625l2.375-4.585937c.707031-1.371094 1.671875-2.144532 2.679687-2.152344 1.007813-.003906 1.976563.761718 2.6875 2.125zm-60.363281 107.273438 12.878907-7.839844c1.132812-.691406 2.371093-.320313 3.339843.996094.964844 1.320312 1.554688 3.429687 1.582031 5.703125l.304688 24.101562c.03125 2.632813-.6875 5.089844-1.878906 6.410156l-23.289063 25.890626c-1.484375 1.648437-3.367187 1.171874-4.578125-1.160157l-5.863281-11.3125c-1.460937-2.8125-1.460937-7.347656 0-10.160156l15.980469-30.835937c.425781-.824219.949218-1.4375 1.523437-1.792969zm14.769531 105.09375-16.371093-31.585938c-.824219-1.589843-1.214844-3.8125-1.0625-6.027343.152343-2.214844.835937-4.171876 1.84375-5.292969l13.628906-15.164063c1.152344-1.285156 2.574219-1.308594 3.742187-.0625 1.164063 1.246094 1.898438 3.574219 1.929688 6.125l.605469 48.464844c.019531 1.3125-.238281 2.585938-.722657 3.523438-.472656.921874-1.117187 1.441406-1.792968 1.445312-.675782.003906-1.324219-.511719-1.800782-1.425781zm81.335938-1.71875-20.167969-38.894531c-1.132812-2.195313-1.414062-5.527344-.695312-8.289063l1.339843-5.101563c.886719-3.441406 3.023438-4.957031 4.867188-3.445312l25.347656 20.808594c1.148438.941406 1.980469 2.914062 2.21875 5.261718l.898438 8.886719c.238281 2.34375-.144532 4.761719-1.023438 6.457031l-7.417968 14.296876c-.710938 1.367187-1.675782 2.136718-2.683594 2.136718-1.007813 0-1.972656-.769531-2.683594-2.136718zm82.230469 0-7.847657-15.128907c-1.324218-2.558593-1.460937-6.59375-.320312-9.457031l14-35.089843c.78125-1.957032 2.03125-3.015626 3.316406-2.8125 1.28125.207031 2.421875 1.648437 3.023438 3.828124l6.910156 25.046876c.765625 2.792968.5 6.207031-.660156 8.449218l-13.066406 25.171875c-.710938 1.363281-1.671876 2.128907-2.679688 2.128907-1.003906 0-1.96875-.765626-2.675781-2.128907zm22.585937-46.554688-18.148437-65.902343c-.421875-1.53125-.402344-3.367188.054687-4.855469.457032-1.492188 1.285156-2.425781 2.1875-2.472657l2.910156-.144531c1.039063-.054687 2.046876.71875 2.78125 2.132813l24.390626 47.070312c1.460937 2.8125 1.460937 7.347656 0 10.160156l-8.152344 15.734376c-.847656 1.632812-2.050782 2.394531-3.238282 2.054687-1.191406-.339844-2.222656-1.742187-2.785156-3.777344zm0 0" fill="url(#a)"/></svg>

<svg xmlns="http://www.w3.org/2000/svg" xmlns:xlink="http://www.w3.org/1999/xlink" width="250px" height="250px" viewBox="0 0 250 250" version="1.1">
<defs>
<linearGradient id="linear0" gradientUnits="userSpaceOnUse" x1="450" y1="630.159973" x2="450" y2="242.190002" gradientTransform="matrix(0.361272,0,0,0.690608,-37.574062,-185.773481)">
<stop offset="0" style="stop-color:rgb(15.294118%,14.117648%,37.64706%);stop-opacity:1;"/>
<stop offset="0.21" style="stop-color:rgb(22.745098%,14.117648%,37.64706%);stop-opacity:1;"/>
<stop offset="0.62" style="stop-color:rgb(41.568628%,13.725491%,38.431373%);stop-opacity:1;"/>
<stop offset="1" style="stop-color:rgb(61.176473%,13.725491%,38.82353%);stop-opacity:1;"/>
</linearGradient>
</defs>
<g id="surface1">
<path style=" stroke:none;fill-rule:nonzero;fill:url(#linear0);" d="M 247.941406 155.386719 L 168.351562 1.773438 C 167.761719 0.640625 166.960938 0 166.125 0 C 165.289062 0 164.488281 0.640625 163.898438 1.773438 L 127.683594 71.609375 C 126.972656 72.976562 126.007812 73.746094 125 73.746094 C 123.996094 73.746094 123.03125 72.976562 122.320312 71.609375 L 86.109375 1.789062 C 84.867188 -0.480469 82.910156 -0.480469 81.664062 1.789062 L 2.054688 155.386719 C -0.613281 160.535156 -0.613281 168.828125 2.054688 173.976562 L 40.546875 248.203125 C 41.792969 250.476562 43.753906 250.476562 45 248.203125 L 81.199219 178.371094 C 81.90625 177.003906 82.871094 176.238281 83.878906 176.238281 C 84.886719 176.238281 85.851562 177.003906 86.5625 178.371094 L 122.769531 248.199219 C 123.359375 249.328125 124.160156 249.964844 124.996094 249.964844 C 125.828125 249.964844 126.628906 249.328125 127.21875 248.199219 L 163.4375 178.382812 C 164.144531 177.015625 165.109375 176.246094 166.117188 176.246094 C 167.125 176.246094 168.089844 177.015625 168.796875 178.382812 L 205 248.21875 C 205.585938 249.355469 206.386719 249.992188 207.222656 249.992188 C 208.058594 249.992188 208.859375 249.355469 209.449219 248.21875 L 247.941406 173.972656 C 250.605469 168.824219 250.605469 160.535156 247.941406 155.386719 Z M 168.351562 160.496094 L 158.957031 141.980469 C 158.074219 140.234375 157.707031 137.75 157.988281 135.375 C 158.269531 133 159.152344 131.054688 160.34375 130.199219 L 175.429688 119.386719 C 176.683594 118.484375 178.09375 118.925781 179.132812 120.539062 C 180.175781 122.15625 180.6875 124.703125 180.484375 127.238281 L 177.683594 162.160156 C 177.464844 164.855469 176.472656 167.085938 175.117188 167.925781 C 173.757812 168.769531 172.269531 168.082031 171.265625 166.144531 Z M 65.054688 90.746094 L 43.019531 104.171875 C 42.09375 104.738281 41.089844 104.023438 40.582031 102.441406 C 40.078125 100.859375 40.203125 98.820312 40.886719 97.507812 L 65.484375 50.054688 C 66.238281 48.625 67.382812 48.261719 68.339844 49.152344 C 69.292969 50.042969 69.847656 51.988281 69.722656 54.003906 L 67.648438 84.773438 C 67.460938 87.554688 66.449219 89.875 65.046875 90.726562 Z M 69.546875 107.8125 L 76.554688 144.0625 C 76.949219 146.09375 76.695312 148.378906 75.90625 149.9375 C 75.117188 151.496094 73.933594 152.046875 72.855469 151.359375 L 52.941406 138.652344 C 51.433594 137.691406 50.402344 135.023438 50.363281 131.980469 L 50.183594 117.824219 C 50.144531 114.617188 51.214844 111.746094 52.8125 110.773438 L 64.859375 103.4375 C 66.777344 102.273438 68.835938 104.1875 69.539062 107.789062 Z M 55.683594 153.03125 L 72.34375 163.675781 C 73.582031 164.460938 74.519531 166.417969 74.820312 168.847656 C 75.125 171.273438 74.75 173.828125 73.832031 175.601562 L 55.273438 211.324219 C 54.617188 212.59375 53.628906 212.988281 52.761719 212.332031 C 51.898438 211.671875 51.320312 210.089844 51.296875 208.308594 L 50.691406 160.007812 C 50.664062 157.652344 51.238281 155.421875 52.230469 154.027344 C 53.226562 152.636719 54.511719 152.253906 55.675781 153.011719 Z M 83.628906 111.097656 L 104.460938 127.707031 C 105.425781 128.480469 106.179688 129.980469 106.542969 131.859375 C 106.910156 133.734375 106.851562 135.8125 106.382812 137.605469 L 97.941406 169.785156 C 97.398438 171.863281 96.363281 173.3125 95.164062 173.679688 C 93.964844 174.046875 92.742188 173.285156 91.886719 171.636719 L 87.164062 162.527344 C 86.785156 161.796875 86.492188 160.917969 86.304688 159.953125 L 78.636719 120.261719 C 78.113281 117.570312 78.472656 114.539062 79.554688 112.546875 C 80.636719 110.550781 82.234375 109.976562 83.621094 111.078125 Z M 178.429688 104.46875 L 163.125 115.449219 C 162.152344 116.148438 161.070312 116.046875 160.140625 115.175781 C 159.207031 114.300781 158.503906 112.730469 158.195312 110.835938 L 156.859375 102.636719 C 156.4375 100.042969 156.8125 97.210938 157.835938 95.316406 L 173.222656 66.761719 C 173.804688 65.6875 174.640625 65.28125 175.417969 65.695312 C 176.195312 66.109375 176.800781 67.277344 177.007812 68.769531 L 180.757812 95.871094 C 181.246094 99.449219 180.238281 103.15625 178.421875 104.449219 Z M 150.164062 124.738281 L 134.105469 136.257812 C 133.207031 136.898438 132.214844 136.863281 131.328125 136.160156 L 128.75 134.089844 C 127.242188 132.886719 126.3125 129.96875 126.441406 126.859375 L 127.933594 90.582031 C 128.007812 88.878906 128.390625 87.277344 129.019531 86.0625 L 138.726562 67.3125 C 139.660156 65.515625 141.015625 64.78125 142.304688 65.382812 C 143.589844 65.984375 144.617188 67.832031 145.011719 70.25 L 152.433594 115.828125 C 153.027344 119.476562 152.027344 123.375 150.15625 124.71875 Z M 115.332031 123.40625 L 110.171875 119.261719 C 109.066406 118.378906 108.246094 116.542969 107.960938 114.316406 L 101.34375 62.519531 C 101.039062 60.144531 101.601562 57.675781 102.71875 56.480469 C 103.835938 55.285156 105.230469 55.65625 106.132812 57.390625 L 120.554688 85.199219 C 121.328125 86.691406 121.722656 88.753906 121.636719 90.847656 L 120.554688 117.277344 C 120.460938 119.59375 119.792969 121.679688 118.757812 122.890625 C 117.71875 124.097656 116.441406 124.28125 115.324219 123.382812 Z M 117.242188 137.90625 L 128.023438 146.503906 C 129.1875 147.433594 130.035156 149.421875 130.273438 151.796875 L 132.324219 172.039062 C 132.539062 174.132812 132.125 176.28125 131.257812 177.617188 C 130.386719 178.957031 129.203125 179.269531 128.175781 178.425781 L 110.882812 164.226562 C 109.929688 163.441406 109.183594 161.941406 108.828125 160.074219 C 108.46875 158.207031 108.53125 156.140625 108.996094 154.363281 L 112.410156 141.332031 C 113.296875 137.941406 115.402344 136.433594 117.234375 137.878906 Z M 139.210938 145.394531 L 146.25 140.34375 C 147.652344 139.332031 149.238281 140.003906 150.289062 142.058594 L 159.164062 159.578125 C 160.59375 162.402344 160.578125 166.890625 159.132812 169.683594 L 146.875 193.316406 C 145.886719 195.214844 144.433594 195.914062 143.09375 195.136719 C 141.753906 194.359375 140.75 192.226562 140.484375 189.597656 L 136.828125 153.496094 C 136.480469 150.042969 137.484375 146.609375 139.203125 145.367188 Z M 191.234375 111.554688 L 197.699219 111.230469 C 199.136719 111.15625 200.472656 112.648438 201.140625 115.082031 L 209.625 145.898438 C 210.3125 148.382812 210.179688 151.402344 209.289062 153.640625 L 192.554688 195.546875 C 191.894531 197.207031 190.886719 198.234375 189.796875 198.367188 C 188.707031 198.5 187.640625 197.722656 186.875 196.234375 L 183.367188 189.476562 C 182.527344 187.851562 182.136719 185.558594 182.320312 183.300781 L 187.59375 117.660156 C 187.871094 114.210938 189.402344 111.640625 191.226562 111.554688 Z M 187.015625 94.226562 L 182.28125 60.027344 C 181.957031 57.660156 182.5 55.171875 183.613281 53.957031 C 184.722656 52.742188 186.125 53.105469 187.023438 54.839844 L 203.578125 86.78125 C 204.636719 88.828125 204.957031 91.882812 204.398438 94.550781 C 203.835938 97.222656 202.5 99.003906 200.996094 99.082031 L 190.765625 99.597656 C 189.011719 99.695312 187.453125 97.46875 187.007812 94.226562 Z M 168.792969 19.675781 L 170.019531 22.050781 C 170.488281 22.945312 170.820312 24.0625 170.988281 25.28125 L 173.605469 44.199219 C 173.953125 46.722656 173.5625 49.40625 172.585938 51.222656 L 158.496094 77.390625 C 157.554688 79.132812 156.203125 79.816406 154.933594 79.199219 C 153.664062 78.578125 152.652344 76.746094 152.257812 74.351562 L 148.832031 53.292969 C 148.414062 50.746094 148.769531 47.964844 149.753906 46.070312 L 163.4375 19.675781 C 164.144531 18.3125 165.109375 17.546875 166.113281 17.546875 C 167.121094 17.546875 168.082031 18.3125 168.792969 19.675781 Z M 86.570312 19.675781 L 89.59375 25.550781 C 90.074219 26.484375 90.414062 27.648438 90.578125 28.921875 L 99.441406 98.292969 C 99.78125 100.9375 99.3125 103.722656 98.230469 105.492188 C 97.148438 107.261719 95.636719 107.714844 94.324219 106.664062 L 76.257812 92.257812 C 74.6875 91.003906 73.75 87.890625 73.96875 84.660156 L 77.761719 28.4375 C 77.871094 26.871094 78.246094 25.417969 78.828125 24.296875 L 81.203125 19.710938 C 81.910156 18.339844 82.875 17.566406 83.882812 17.558594 C 84.890625 17.554688 85.859375 18.320312 86.570312 19.683594 Z M 26.207031 126.949219 L 39.085938 119.109375 C 40.21875 118.417969 41.457031 118.789062 42.425781 120.105469 C 43.390625 121.425781 43.980469 123.535156 44.007812 125.808594 L 44.3125 149.910156 C 44.34375 152.542969 43.625 155 42.433594 156.320312 L 19.144531 182.210938 C 17.660156 183.859375 15.777344 183.382812 14.566406 181.050781 L 8.703125 169.738281 C 7.242188 166.925781 7.242188 162.390625 8.703125 159.578125 L 24.683594 128.742188 C 25.109375 127.917969 25.632812 127.304688 26.207031 126.949219 Z M 40.976562 232.042969 L 24.605469 200.457031 C 23.78125 198.867188 23.390625 196.644531 23.542969 194.429688 C 23.695312 192.214844 24.378906 190.257812 25.386719 189.136719 L 39.015625 173.972656 C 40.167969 172.6875 41.589844 172.664062 42.757812 173.910156 C 43.921875 175.15625 44.65625 177.484375 44.6875 180.035156 L 45.292969 228.5 C 45.3125 229.8125 45.054688 231.085938 44.570312 232.023438 C 44.097656 232.945312 43.453125 233.464844 42.777344 233.46875 C 42.101562 233.472656 41.453125 232.957031 40.976562 232.042969 Z M 122.3125 230.324219 L 102.144531 191.429688 C 101.011719 189.234375 100.730469 185.902344 101.449219 183.140625 L 102.789062 178.039062 C 103.675781 174.597656 105.8125 173.082031 107.65625 174.59375 L 133.003906 195.402344 C 134.152344 196.34375 134.984375 198.316406 135.222656 200.664062 L 136.121094 209.550781 C 136.359375 211.894531 135.976562 214.3125 135.097656 216.007812 L 127.679688 230.304688 C 126.96875 231.671875 126.003906 232.441406 124.996094 232.441406 C 123.988281 232.441406 123.023438 231.671875 122.3125 230.304688 Z M 204.542969 230.324219 L 196.695312 215.195312 C 195.371094 212.636719 195.234375 208.601562 196.375 205.738281 L 210.375 170.648438 C 211.15625 168.691406 212.40625 167.632812 213.691406 167.835938 C 214.972656 168.042969 216.113281 169.484375 216.714844 171.664062 L 223.625 196.710938 C 224.390625 199.503906 224.125 202.917969 222.964844 205.160156 L 209.898438 230.332031 C 209.1875 231.695312 208.226562 232.460938 207.21875 232.460938 C 206.214844 232.460938 205.25 231.695312 204.542969 230.332031 Z M 227.128906 183.769531 L 208.980469 117.867188 C 208.558594 116.335938 208.578125 114.5 209.035156 113.011719 C 209.492188 111.519531 210.320312 110.585938 211.222656 110.539062 L 214.132812 110.394531 C 215.171875 110.339844 216.179688 111.113281 216.914062 112.527344 L 241.304688 159.597656 C 242.765625 162.410156 242.765625 166.945312 241.304688 169.757812 L 233.152344 185.492188 C 232.304688 187.125 231.101562 187.886719 229.914062 187.546875 C 228.722656 187.207031 227.691406 185.804688 227.128906 183.769531 Z M 227.128906 183.769531 "/>
</g>
</svg>
